X:119
T:KEROUEZEE -2-
Z: Yves BELOTTEAU
M:4/4
L:1/4
Q:1/4=60
K:C
|ceg2 fed2|cd/2e/2dd dc/2d/2ec|ceg2 fed2|cd/2e/2dc Bdc2|
ceg2 fed2|cd/2e/2dd dc/2d/2ec|ceg2 fed2|cd/2e/2dc Bdc2|
cd/2e/2dd dc/2d/2ec|cd/2e/2dc BdcG|cd/2e/2dd dc/2d/2ec|cd/2e/2dc BdcG|
cde2 d2c2|f4 e4|d4 c7/2|
